X: 1
T: Bard's Whim, The
M: 6/8
L: 1/8
R: jig
K: Gmaj
|: dc | B2 A G2 A | Bdd dec | B2 A G2 A | Bee ee/f/g |
B2 A G2 A | Bdd dec | Bee efg |1 Bee e :|2 Bee e2 ||
|: d | B2 g gdc | B2 d dec | B2 g ged | B2 e edc |
B2 g gdc | B2 d dec | BcA GFG |1 B2 e e2 :|2 B2 e e ||
